X:1
T:Clément Janequin ~1485 - 1558
T:Fyez vous y
%%score [ ( 1 2 3 ) 4 5 6 ]
L:1/8
Q:1/4=360
M:6/2
K:F
V:1 treble nm="Superius"
V:2 treble 
V:3 treble 
V:4 treble nm="Contratenor"
V:5 treble-8 nm="Tenor"
V:6 bass nm="Bassus"
V:1
S z4 z4 A4 A8 A4 x12 | G8 F4 B8 B4 | A8 x4 x12 | x24 | x4 x4 A4 A8 A4 |[M:6/2] G8 F4 B8 B4 | %6
w: Fy- ez vous|y si vous vou-|lez,||fy- ez vous|y si vous vou-|
w: ||||||
 A8 A4 A8 A4 | G4 F8 E8 F8 | E8 F4 F4 E4 F8 | A4 A8 A4 x8 | G4 F8 E8 F8 | %11
w: lez. Si la pre-|nez co- cu, co-|cu co- cu se- rez,|||
w: |||si la pre-|nez, co- cu, co-|
 E8 F4 F4 E4"^[      ]" !fermata!F8!fine! | A4 G4 F8 E8 | F4 D4 F8 E8 | x40 | x24 | %16
w: |||||
w: cu, co- cu se- rez.|Si la pre- nez,|co- cu se- rez.|||
 x4 x4 A4 A8 A4 | G8 F4 F4 E8 | F8 x4 x12 | x24 | x4 x4 A4 A8 A4 | G8 A4 B8 c4 | A8 x4 x12 | %23
w: si la pre-|nez, co- cu se-|rez||fy- ez vous|y si vous vou-|lez|
w: |||||||
 x16 x8 | x16 x8 | x16 x8 | G12 F6 F2 F4 | E6 E2 E4 D8 E4 | F8 F4 F8 F4 | G4 A8 B12 | %30
w: |||rez. fem- me ve-|nu- ste, c'est u- ne|fu- ste d'on- des|a- gi- té-|
w: |||||||
 A12 F6 F2 F4 x12 |[M:9/2] E6 E2 E4 D8 E4 F8 F4 |[M:2/2][Q:1/4=240] F8 x4 | G4 A4 x8 | B8 | %35
w: e tant é- vol~~~-|lé- e qu'elle est fou- lé- e,||||
w: ||qu'elle|est fou-|lé-|
[M:6/2][Q:1/4=360] A8 A4!D.S.! || %36
w: * fy-|
w: e. *|
V:2
 x4 x4 x4 x16 x8 | x8 x4 x8 c4 | c8 c4 B8 A4 | d8 d4 c8 x4 | x24 |[M:6/2] x24 | x24 | x28 | x28 | %9
w: |||||||||
w: |fy-|ez vous y si|vous vou- lez,||||||
 x24 | x16 x12 | x16 x12 | x16 x8 | x16 x8 | x4 x4 c4 c8 c4 x16 | B8 c4 d8 d4 | c8 x4 x12 | %17
w: |||||Je vous dy|vray je nen mens|point,|
w: ||||||||
 x16 x8 | x4 x4 c4 c8 c4 | G8 A4 B8 c4 | A8 x16 | x16 x8 | x4 x4 c4 c8 c4 | G8 A4 B8 c4 | %24
w: |car de plai-|sir il nen a|point,||car- de plai-|sir il nen a|
w: |||||||
 A8 c4 c8 c4 | d8 c4 B4 A8 | x24 | x24 | x24 | x24 | x36 |[M:9/2] x36 |[M:2/2] x12 | x16 | x8 | %35
w: point, si la pre-|nez, co- cu se-||||||||||
w: |||||||||||
[M:6/2] x12 || %36
w: |
w: |
V:3
 x4 x4 x4 x16 x8 | x8 x4 x8 A4 | A8 A4 G8 F4 | B8 B4 A8 x4 | x24 |[M:6/2] x24 | x24 | x28 | x28 | %9
 x24 | x16 x12 | x16 x12 | x16 x8 | x16 x8 | x4 x4 A4 A8 A4 x16 | G8 A4 F8 G4 | A8 x4 x12 | %17
 x16 x8 | x4 x4 F4 F8 F4 | E8 C4 D8 E4 | F8 x16 | x16 x8 | x4 x4 F4 F8 F4 | E8 C4 D8 E4 | %24
 F8 A4 A8 A4 | B8 A4 G4 F8 | x24 | x24 | x24 | x24 | x36 |[M:9/2] x36 |[M:2/2] x12 | x16 | x8 | %35
[M:6/2] x12 || %36
V:4
 z4 z4 F4 F8 F4 x12 | D8 C4 F8 F4 | F8 z4 z12 | z24 | z4 z4 F4 F8 F4 |[M:6/2] D8 C4 F8 F4 | %6
w: Fy- ez vous|y si vous vou-|lez,||fy- ez vous|y si vous vou-|
 F8 F4 F8 F4 | E4 D8 C8 D8 | C8 D4 D4 C4 C8 | F4 F8 F4 x8 | E4 D8 C8 D8 | %11
w: lez. Si la pre-|nez co- cu, co-|cu, co- cu se- rez,|si la pre-|nez, co- cu, co-|
 C8 D4 D4 C4"^[      ]" !fermata!C8 | C4 D4 B,8 G,8 | F,4 F,4 B,8 G,8 | z4 z12 z24 | %15
w: cu co- cu se- rez.|co- cu se- rez,|co- cu se- rez.||
 z4 z4 F4 F8 F4 | D8 D4 C8 C4 | A,8 z4 z12 | z24 | z4 z4 F4 F8 F4 | D8 D4 G8 E4 | x12- x8 x4 | %22
w: si la pre-|nez, co- cu se-|rez||fy- ez vous|y si vous vou-|lez|
 z24 | z24 | z24 | z12 D4 D4 C4 | C6 C2 C4 B,8 C4 | D8 D4 C8 D4 | E4 F8 D8 E4 | F12 C6 C2 C4 | %30
w: |||fem- ­me ve-|nu- ste, c'est u- ne|fu- ste d'on- des|a- gi- té- *|e, tant é- vol-|
[M:9/2] C6 C2 C4 B,8 C4 D8 D4 |[M:2/2] C6 D2 x28 | E2 C2 F8 | E4 F8 F4 | x8 | x12 || %36
w: lé- e qu'elle est fou- lé- e,|qu'elle est|fou- * lé-|* e. fy-|||
V:5
 z4 z4 c4 c8 c4 x12 | B8 A4 d8 d4 | c8 F4 F8 F4 | G8 d4 B8 B4 | F8 c4 c8 c4 | %5
w: Fy- ez vous|y si vous vou-|lez, fy- ez vous|y si vous vou-|lez, fy- ez vous|
[M:6/2][K:treble-8] B8 A4 d8 d4 | c8 c4 c6 c2 c4 | c4 A4 B4 G4 c4 A4 x4 | B4 G4 c4 A4 B4 A2 G2 x4 | %9
w: y si vous vou-|lez. Si la pre- nez,|co- cu, co- cu, co- cu,|co- cu, co- cu se- * *|
 F8 c4 c6 c2 c4 | c4 A4 B4 G4 c4 A4 x4 | B4 G4 c4 A4 B4 A2 G2 x4 | %12
w: rez, si la pre- nez,|co- cu, co- cu, co- cu,|co- cu, co- cu se * *|
"^[      ]" !fermata!F8 A4 B8 c4 | c8 A4 B8 d4 | c8 F4 F8 F4 x16 | G8 F4 B8 B4 | F8 c4 c8 c4 | %17
w: rez. Si la pre-|nez, co- cu se-|rez. Je vous di-|ray je nen mens|point, si la pre-|
 B8 A4 A8 G4 | F8 A4 A8 A4 | c8 A4 G8 C4 | F8 c4 c8 c4 | B8 A4 d8 c4 | c8 A4 A8 A4 | c8 A4 G8 C4 | %24
w: nez, co- cu se-|rez car de plai-|sir il nen a|point, fy- ez vous|y si vous vou-|lez car de plai-|sir il nen a|
 F8 F4 F8 F4 | B8 F4 G4 D8 | G12 A6 A2 A4 | G6 G2 G4 G8 G4 | B8 B4 A8 A4 | G4 F8 B12 | %30
w: point, si la pre-|nez, co- cu se-|rez. fem- meve- *|nu- ste, c'est u- ne|fu- ste d'on- des|a- gi- té-|
 c12 A6 A2 A4 x12 |[M:9/2] G6 G2 G4 G8 G4 B8 B4 |[M:2/2] A8 x4 | G4 F4 x8 | B8 |[M:6/2] c8 c4 || %36
w: e, tant é vol-|lé- e qu'elle est fou- lé- e,|qu'elle|est fou-|lé-|e. fy-|
V:6
 z4 z4 F,4 F,8 F,4 x12 | G,8 A,4 B,4 B,,8 | F,8 z4 z12 | z24 | z4 z4 F,4 F,8 F,4 | %5
w: Fy- ez vous|y si vous vou-|lez,||fy- ez vous|
w: |||||
[M:6/2] G,8 A,4 B,4 B,,8 | F,8 F,4 F,8 F,4 | C,4 D,4 B,,4 C,4 A,,4 D,4 x4 | %8
w: y si vous vou-|lez. Si la pre-|nez, co- cu, co- cu, co-|
w: |||
 B,,4 C,4 A,,4 D,4 B,,4 C,4 x4 | F,,8 F,4 F,8 F,4 | C,4 D,4 B,,4 C,4 A,,4 D,4 x4 | %11
w: cu, co- cu, co- cu se-|rez, * * *||
w: |* si la pre-|nez, co- cu, co- cu, co-|
 B,,4 C,4 A,,4 D,4 B,,4 C,4 x4 |"^[      ]" !fermata!F,,8 F,4 B,,4 B,,8 | C,8 F,4 B,,4 B,,8 | %14
w: |* co- cu se-|rez, * * *|
w: cu, co- cu, co- cu se-|rez,. * * *|* co- cu se-|
 C,8 z4 z12 x16 | z24 | z4 z4 F,4 F,8 F,4 | G,8 D,4 F,4 C,8 | F,,24 | z24 | z4 z4 F,4 F,8 F,4 | %21
w: ||si la pre-|nez, co- cu se-|rez,\_\_\_\_\_\_\_\_\_\_||fy- ez vous|
w: rez.|||||||
 G,8 F,4 G,8 A,4 | x12- x8 x4 | z24 | z24 | z24 | z12 D,4 D,4 F,4 | C,6 C,2 C,4 G,,8 C,4 | %28
w: y si vous vou-|lez||||Fem- me ve-|nu- ste, c'est u- ne|
w: |||||||
 B,,8 B,,4 F,8 F,4 | E,4 D,8 G,12 | F,12 F,6 F,2 F,4 x12 |[M:9/2] C,6 C,2 C,4 G,,8 C,4 B,,8 B,,4 | %32
w: fu- ste d'on- des|a- gi- té-|e, tant é- vol-|lé- e qu'elle est fou- lé- e,|
w: ||||
[M:2/2] F,8 x4 | E,4 D,4 x8 | G,8 |[M:6/2] F,8 F,4 || %36
w: qu'elle|est fou-|lé-|e. fy-|
w: ||||

